resources/briefcase.svg

<svg xmlns="http://www.w3.org/2000/svg" width="24" height="24" fill="#f4f4f7" viewBox="0 0 24 24"><path stroke="#555e70" stroke-linecap="round" stroke-linejoin="round" stroke-width="2" d="M21 13.2554C18.2207 14.3805 15.1827 15 12 15C8.8173 15 5.7793 14.3805 3 13.2554M16 6V4C16 2.89543 15.1046 2 14 2H10C8.89543 2 8 2.89543 8 4V6M12 12H12.01M5 20H19C20.1046 20 21 19.1046 21 18V8C21 6.89543 20.1046 6 19 6H5C3.89543 6 3 6.89543 3 8V18C3 19.1046 3.89543 20 5 20Z"/></svg>

<svg width="24" height="24" fill="#f4f4f7">
  <path stroke="#555e70" stroke-linecap="round" stroke-linejoin="round" stroke-width="2" d="M21 13.255A23.931 23.931 0 0 1 12 15c-3.183 0-6.22-.62-9-1.745M16 6V4a2 2 0 0 0-2-2h-4a2 2 0 0 0-2 2v2m4 6h.01M5 20h14a2 2 0 0 0 2-2V8a2 2 0 0 0-2-2H5a2 2 0 0 0-2 2v10a2 2 0 0 0 2 2Z"/>
</svg>
